X: 10281
T: CORN RIGGS
Q: "Slowish"
%R: reel
B: "Edinburgh Repository of Music" v.1 p.28 #1
F: http://digital.nls.uk/special-collections-of-printed-music/pageturner.cfm?id=87776133
Z: 2015 John Chambers <jc:trillian.mit.edu>
M: C
L: 1/8
K: A
E |\
A3B {d}c2{B}A2 | G>FGA B2E2 |\
A3B cd Bc | A2e>f e3E |\
A3B (dc)(BA) | (GF)(GA) B3E |\
FGAF BAGF | E2A>B A2 :|
|: E2 |\
A2e2 c>de>A | G>FGA B2E2 |\
A2e>d cdBc | A2e>f e2E2 |\
A2e2 fedc | dcBA AGFE | FGAF BAGF | E2A>B A2 :|

%%sep 2 1 500
%%sep 1 1 500

